icon/lg/mparticle.svg

<?xml version="1.0" encoding="UTF-8"?>
<svg viewBox="0 0 512 108" version="1.1" xmlns="http://www.w3.org/2000/svg" xmlns:xlink="http://www.w3.org/1999/xlink" preserveAspectRatio="xMidYMid" height="1em" width="1em">
  <g>
    <path d="M128.64957,53.5976437 L128.64957,80.38695 L85.7663798,107.1826 L85.7663798,80.38695 L128.64957,53.5976437 Z M85.7663798,53.5976437 L85.7663798,80.38695 L42.8831899,107.1826 L42.8831899,80.38695 L85.7663798,53.5976437 Z M42.8831899,53.5976437 L42.8831899,80.38695 L0,107.1826 L0,80.38695 L42.8831899,53.5976437 Z M265.964589,49.2966374 C270.818229,57.8857377 269.408792,68.6491763 262.50729,75.69898 C258.705021,79.3857742 253.63148,81.4706043 248.335538,81.5224665 C244.509896,81.613401 240.785182,80.289761 237.874831,77.8050775 L237.874831,99.4877318 L226.855881,99.4877318 L226.855881,40.1046637 L237.570335,40.1046637 L237.570335,43.2257479 C240.5927,40.6967757 244.41377,39.3211906 248.354569,39.3434236 C255.580665,39.2789092 262.292786,43.0726117 265.964589,49.2966374 Z M304.800519,43.5365876 L304.800519,40.079289 L315.254882,40.079289 L315.229508,80.5899474 L304.882987,80.5899474 L304.882987,77.1326488 C301.92018,80.0441862 297.902447,81.6283863 293.749851,81.5224665 C286.490954,81.5797691 279.772648,77.6935474 276.203267,71.372599 C274.242898,68.0556528 273.249681,64.2563773 273.33593,60.4043985 C273.33593,52.2274116 277.554469,45.3952821 283.796637,41.9316398 C286.85493,40.1958055 290.315825,39.2944851 293.832318,39.318049 C297.902825,39.2159526 301.847527,40.7331456 304.800519,43.5365876 Z M427.347481,39.3117053 C435.359532,39.3117053 441.347954,42.3503218 445.312746,48.5100226 L436.875669,53.7372044 C434.515825,50.3623735 431.39474,48.6622707 427.429948,48.6622707 C421.022845,48.6622707 416.721838,53.6420494 416.721838,60.5566466 C416.721838,67.4712437 420.851566,72.0259967 427.347481,72.0259967 C431.280918,72.1045233 435.001825,70.2452554 437.300695,67.0525617 L445.395214,72.4066168 C441.519233,77.9763565 434.94085,81.4336551 427.429948,81.4336551 C419.500365,81.4336551 412.5033,77.7226098 408.620975,71.2837877 C405.721216,66.3755422 404.919041,60.5067284 406.395285,55.0003519 C407.871529,49.4939754 411.501931,44.8135228 416.468092,42.0141075 C419.810291,40.2145472 423.551692,39.2851964 427.347481,39.3117053 Z M490.927572,39.2433498 L491.418519,39.2482686 C503.649109,39.2482686 511.997375,47.8566249 511.997375,61.2671373 C512.006168,61.6899155 511.992866,62.112768 511.957553,62.5339678 L511.914907,62.9545527 L480.792876,62.9545527 C481.636584,68.8541632 485.709218,71.9752474 491.418519,71.9752474 C495.219973,72.06173 498.855005,70.4474261 501.338922,67.5846784 L501.568386,67.3126521 L509.301317,72.4002731 L509.060524,72.7346825 C505.002161,78.259346 498.695078,81.3385001 491.418519,81.3385001 C485.093883,81.3385001 479.441675,78.9913433 475.813098,75.185143 C472.030738,71.206643 469.944555,65.9126977 469.995955,60.4234295 C469.995955,52.5763133 473.618189,45.9218065 480.202915,42.1156062 C483.326363,40.3189867 486.845444,39.336138 490.437346,39.2495887 L490.927572,39.2433498 Z M176.423727,39.356111 C181.993467,39.356111 186.040726,41.2148054 188.40057,44.9258507 C192.870741,41.2126909 197.763823,39.356111 203.079816,39.356111 C212.614348,39.3434236 217.759062,44.9321944 217.759062,55.2025915 L217.759062,80.5772601 L206.790862,80.5772601 L206.790862,56.0462992 C206.790862,51.0728642 204.431017,48.6242087 199.876264,48.6242087 C196.492975,48.6242087 193.532597,50.0578774 190.99513,52.925215 L190.99513,80.5899474 L180.052305,80.5899474 L180.052305,56.0462992 C180.052305,51.0728642 177.774928,48.6242087 173.220175,48.6242087 C169.762876,48.6242087 166.813071,50.1403451 164.281948,53.1789617 L164.281948,80.5899474 L153.23128,80.5899474 L153.23128,40.1046637 L163.520708,40.1046637 L163.520708,43.910864 C167.142303,40.9049012 171.717628,39.289816 176.423727,39.356111 Z M348.127765,39.3434236 L348.127765,49.8041307 C347.137044,49.5426728 346.113065,49.4293724 345.089149,49.4679164 C341.439785,49.5687268 338.017833,51.2634741 335.725896,54.1051371 L335.725896,80.5899474 L324.681572,80.5899474 L324.681572,40.1046637 L334.971,40.1046637 L334.971,43.815709 C338.257019,40.5233457 341.885597,39.3434236 348.127765,39.3434236 Z M372.316168,26.6116837 L372.316168,40.1046637 L381.425674,40.1046637 L381.425674,49.2141697 L372.316168,49.2141697 L372.316168,80.5899474 L361.341624,80.5899474 L361.341624,49.2141697 L352.834767,49.2141697 L352.834767,40.1046637 L361.341624,40.1046637 L361.341624,26.6116837 L372.316168,26.6116837 Z M398.946883,40.1046637 L398.946883,80.5899474 L387.896215,80.5899474 L387.896215,40.1046637 L398.946883,40.1046637 Z M463.607882,19.9444895 L463.607882,80.5899474 L452.646025,80.5899474 L452.646025,19.9444895 L463.607882,19.9444895 Z M295.32308,48.6242087 C289.417126,48.6242087 284.361223,53.1789617 284.361223,60.4297732 C284.361223,67.6805848 289.334658,72.1592138 295.240613,72.1592138 C298.702458,72.2792917 302.039155,70.8572454 304.350119,68.2768895 L304.350119,52.5890006 C302.050827,50.0313782 298.76209,48.5869223 295.32308,48.6242087 Z M246.997024,48.6242087 C243.449363,48.5733497 240.058404,50.0832774 237.722583,52.753936 L237.722583,68.1944218 C239.969223,70.739629 243.208903,72.1859147 246.603717,72.1592138 C252.807823,72.1592138 257.781258,67.6869284 257.781258,60.2648379 C257.781258,53.096494 252.706324,48.6242087 246.997024,48.6242087 Z M491.691297,48.275307 C486.48841,48.275307 482.901897,50.7788643 481.336176,55.3994042 L481.236933,55.7037412 L501.390764,55.7037412 C500.068312,50.8361239 496.971493,48.3869917 492.017047,48.2849768 L491.691297,48.2816506 L491.691297,48.275307 Z M85.7663798,0 L85.7663798,26.79565 L42.8831899,53.5913 L42.8831899,26.79565 L85.7663798,0 Z M128.64957,0 L128.64957,26.79565 L85.7663798,53.5913 L85.7663798,26.79565 L128.64957,0 Z M42.8831899,0 L42.8831899,26.79565 L0,53.5913 L0,26.79565 L42.8831899,0 Z M399.20063,23.5730671 L399.20063,34.7062029 L387.642468,34.7062029 L387.642468,23.5730671 L399.20063,23.5730671 Z" fill="#000000"/>
  </g>
</svg>

<svg width="512" height="108" xmlns="http://www.w3.org/2000/svg" preserveAspectRatio="xMidYMid"><path d="M128.65 53.598v26.789l-42.884 26.796V80.387l42.884-26.79Zm-42.884 0v26.789l-42.883 26.796V80.387l42.883-26.79Zm-42.883 0v26.789L0 107.183V80.387l42.883-26.79Zm223.082-4.301a22.158 22.158 0 0 1-3.458 26.402 20.649 20.649 0 0 1-14.171 5.823 15.542 15.542 0 0 1-10.461-3.717v21.683h-11.02V40.105h10.715v3.12a16.658 16.658 0 0 1 10.785-3.882 20.236 20.236 0 0 1 17.61 9.954Zm38.836-5.76v-3.458h10.454l-.025 40.51h-10.347v-3.456a15.326 15.326 0 0 1-11.133 4.39 19.97 19.97 0 0 1-17.547-10.15 20.649 20.649 0 0 1-2.867-10.969c0-8.177 4.218-15.009 10.46-18.472a20.059 20.059 0 0 1 10.036-2.614 15.37 15.37 0 0 1 10.969 4.219Zm122.546-4.225c8.013 0 14.001 3.038 17.966 9.198l-8.437 5.227c-2.36-3.375-5.481-5.075-9.446-5.075-6.407 0-10.708 4.98-10.708 11.895 0 6.914 4.13 11.469 10.625 11.469a11.97 11.97 0 0 0 9.954-4.973l8.094 5.354c-3.876 5.57-10.454 9.027-17.965 9.027-7.93 0-14.927-3.711-18.809-10.15a21.213 21.213 0 0 1 7.847-29.27 22.615 22.615 0 0 1 10.88-2.702Zm63.58-.069.492.005c12.23 0 20.578 8.609 20.578 22.02.01.422-.004.845-.04 1.266l-.042.42h-31.122c.844 5.9 4.916 9.021 10.626 9.021a12.75 12.75 0 0 0 9.92-4.39l.23-.272L509.3 72.4l-.24.335c-4.059 5.524-10.366 8.604-17.642 8.604-6.325 0-11.977-2.348-15.606-6.154a21.137 21.137 0 0 1-5.817-14.762c0-7.847 3.622-14.501 10.207-18.307a21.569 21.569 0 0 1 10.234-2.866l.49-.007Zm-314.503.113c5.57 0 9.617 1.859 11.977 5.57 4.47-3.713 9.363-5.57 14.679-5.57 9.534-.013 14.68 5.576 14.68 15.847v25.374h-10.97v-24.53c0-4.974-2.359-7.423-6.914-7.423-3.383 0-6.343 1.434-8.88 4.301V80.59h-10.944V56.046c0-4.973-2.277-7.422-6.832-7.422-3.457 0-6.407 1.516-8.938 4.555v27.41h-11.05V40.106h10.289v3.806a19.767 19.767 0 0 1 12.903-4.555Zm171.704-.013v10.461a10.378 10.378 0 0 0-3.039-.336c-3.65.1-7.071 1.795-9.363 4.637V80.59h-11.044V40.105h10.289v3.71c3.286-3.292 6.915-4.472 13.157-4.472Zm24.188-12.731v13.493h9.11v9.11h-9.11V80.59h-10.974V49.214h-8.507v-9.11h8.507V26.613h10.974Zm26.63 13.493V80.59h-11.05V40.105h11.05Zm64.662-20.16V80.59h-10.962V19.944h10.962Zm-168.285 28.68c-5.906 0-10.962 4.554-10.962 11.805 0 7.25 4.974 11.73 10.88 11.73a11.685 11.685 0 0 0 9.11-3.883V52.589a11.964 11.964 0 0 0-9.028-3.965Zm-48.326 0a12.091 12.091 0 0 0-9.274 4.129v15.44a11.723 11.723 0 0 0 8.88 3.965c6.205 0 11.178-4.472 11.178-11.894 0-7.169-5.075-11.64-10.784-11.64Zm244.694-.35c-5.203 0-8.79 2.504-10.355 7.124l-.1.305h20.155c-1.323-4.868-4.42-7.317-9.374-7.419l-.326-.003v-.007ZM85.766 0v26.796L42.883 53.59V26.796L85.766 0Zm42.884 0v26.796L85.766 53.59V26.796L128.65 0ZM42.883 0v26.796L0 53.59V26.796L42.883 0Zm356.318 23.573v11.133h-11.559V23.573h11.559Z"/></svg>
